icons/evolvere-blue-folders-flat-vivid-dark-fallback/apps/64/monodoc.svg

<?xml version="1.0" encoding="UTF-8" standalone="no"?>
<!-- Created with Inkscape (http://www.inkscape.org/) -->

<svg
   xmlns:dc="http://purl.org/dc/elements/1.1/"
   xmlns:cc="http://creativecommons.org/ns#"
   xmlns:rdf="http://www.w3.org/1999/02/22-rdf-syntax-ns#"
   xmlns:svg="http://www.w3.org/2000/svg"
   xmlns="http://www.w3.org/2000/svg"
   xmlns:sodipodi="http://sodipodi.sourceforge.net/DTD/sodipodi-0.dtd"
   xmlns:inkscape="http://www.inkscape.org/namespaces/inkscape"
   width="64"
   height="64"
   id="svg13094"
   version="1.1"
   inkscape:version="0.91+devel r"
   sodipodi:docname="monodoc.svg">
  <sodipodi:namedview
     id="base"
     pagecolor="#ffffff"
     bordercolor="#666666"
     borderopacity="1.0"
     inkscape:pageopacity="0"
     inkscape:pageshadow="2"
     inkscape:zoom="11.313708"
     inkscape:cx="34.800976"
     inkscape:cy="32.193273"
     inkscape:document-units="px"
     inkscape:current-layer="svg13094"
     showgrid="true"
     inkscape:snap-bbox="true"
     inkscape:bbox-paths="true"
     inkscape:bbox-nodes="true"
     inkscape:snap-bbox-edge-midpoints="true"
     inkscape:snap-bbox-midpoints="true"
     inkscape:object-paths="true"
     inkscape:snap-intersection-paths="true"
     inkscape:object-nodes="true"
     inkscape:snap-smooth-nodes="true"
     inkscape:snap-midpoints="true"
     inkscape:snap-object-midpoints="true"
     inkscape:snap-center="true"
     showguides="true"
     inkscape:guide-bbox="true"
     inkscape:window-width="1920"
     inkscape:window-height="1023"
     inkscape:window-x="-10"
     inkscape:window-y="35"
     inkscape:window-maximized="1"
     inkscape:snap-global="true"
     fit-margin-top="0"
     fit-margin-left="0"
     fit-margin-right="0"
     fit-margin-bottom="0"
     showborder="true"
     inkscape:showpageshadow="false"
     inkscape:snap-page="true">
    <inkscape:grid
       type="xygrid"
       id="grid3075"
       empspacing="5"
       visible="true"
       enabled="true"
       snapvisiblegridlinesonly="true"
       originx="1.6362304e-08px"
       originy="18px" />
  </sodipodi:namedview>
  <defs
     id="defs13096" />
  <metadata
     id="metadata13099">
    <rdf:RDF>
      <cc:Work
         rdf:about="">
        <dc:format>image/svg+xml</dc:format>
        <dc:type
           rdf:resource="http://purl.org/dc/dcmitype/StillImage" />
        <dc:title></dc:title>
      </cc:Work>
    </rdf:RDF>
  </metadata>
  <path
     inkscape:connector-curvature="0"
     style="color:#000000;fill:#255a8e;fill-opacity:1;fill-rule:nonzero;stroke:none;stroke-width:2;marker:none;visibility:visible;display:inline;overflow:visible;enable-background:accumulate"
     d="m 0,8 0,26 0,28 2,2 30,0 30,0 2,-2 0,-28 0,-26 -32,0 z"
     id="path4095"
     sodipodi:nodetypes="ccccccccccc" />
  <path
     inkscape:connector-curvature="0"
     style="color:#000000;fill:#4e8fc3;fill-opacity:1;fill-rule:nonzero;stroke:none;stroke-width:2.28571415;marker:none;visibility:visible;display:inline;overflow:visible;enable-background:accumulate"
     d="M 2,0 0,1 0,8 32,8 64,8 64,1 62,0 32,0 z"
     id="path4090"
     sodipodi:nodetypes="ccccccccc" />
  <path
     d="M 64,10 62,8 64,7 z"
     id="path3028"
     style="fill:#3a75a8;fill-opacity:1"
     inkscape:connector-curvature="0"
     sodipodi:nodetypes="cccc" />
  <g
     id="g3043"
     inkscape:export-filename="folder.png"
     inkscape:export-xdpi="90"
     inkscape:export-ydpi="90"
     transform="translate(-0.62500009,0.082283)" />
  <g
     id="scalable"
     transform="matrix(1.0385892,0,0,1.0385892,1214.7222,1878.8121)"
     inkscape:label="#g3701"
     style="fill:#ffffff" />
  <path
     style="color:#000000;fill:#214f7d;fill-opacity:1;fill-rule:nonzero;stroke:none;stroke-width:2;marker:none;visibility:visible;display:inline;overflow:visible;enable-background:accumulate;opacity:1;stroke-linecap:butt;stroke-linejoin:miter;stroke-miterlimit:4;stroke-dasharray:none;stroke-dashoffset:0;stroke-opacity:1"
     d="M 3 2 L 3 4 L 61 4 L 61 6 L 64 6 L 64 4 L 64 2 L 3 2 z "
     id="rect3178" />
  <path
     id="path3952"
     d="M 3,4 61,4 61,6 3,6 z"
     style="color:#000000;fill:#deebf8;fill-opacity:1;fill-rule:nonzero;stroke:none;stroke-width:1;marker:none;visibility:visible;display:inline;overflow:visible;enable-background:accumulate;opacity:1;stroke-linecap:butt;stroke-linejoin:miter;stroke-miterlimit:4;stroke-dasharray:none;stroke-dashoffset:0;stroke-opacity:1"
     inkscape:connector-curvature="0" />
  <path
     style="color:#000000;fill:#001e3b;fill-opacity:0.12790698;fill-rule:nonzero;stroke:none;stroke-width:2;marker:none;visibility:visible;display:inline;overflow:visible;enable-background:accumulate;opacity:1;stroke-linecap:butt;stroke-linejoin:miter;stroke-miterlimit:4;stroke-dasharray:none;stroke-dashoffset:0;stroke-opacity:1"
     d="M 3,2 5,4 5,6 3,6 z"
     id="rect3143"
     inkscape:connector-curvature="0"
     sodipodi:nodetypes="ccccc" />
  <path
     style="fill:#68a0cc;fill-opacity:1;fill-rule:nonzero"
     d="M 0,7 0,10 2,8 Z"
     id="path4298"
     inkscape:connector-curvature="0"
     sodipodi:nodetypes="cccc" />
  <path
     style="color:#000000;fill:#deebf8;fill-opacity:1;fill-rule:nonzero;stroke:none;stroke-width:1;marker:none;visibility:visible;display:inline;overflow:visible;enable-background:accumulate"
     d="m 28.90625,18.40625 c -0.590011,0.0016 -1.137331,0.01486 -1.59375,0.0625 -1.578408,0.164755 -3.182178,0.578081 -3.6875,0.90625 -0.142428,0.0925 0.872377,0.302698 2.625,0.625 1.573391,0.289342 2.734525,0.5914 2.5625,0.625 -0.172026,0.03361 -2.650234,-0.259329 -5.5,-0.625 -5.002985,-0.641964 -5.182787,-0.627857 -5.53125,-0.3125 -0.726534,0.657503 -1.784794,2.475858 -2,3.4375 -0.208355,0.931036 -0.182307,0.990023 0.28125,1.9375 0.790126,1.61496 2.250469,2.80903 5.59375,4.5 1.580926,0.799605 2.82811,1.48439 2.78125,1.53125 -0.04686,0.04685 -1.397895,-0.43123 -3,-1.09375 L 18.53125,28.78125 14.25,30 C 12.221851,30.567564 10.468137,31.04651 10,31.125 L 10,56 c 0,1.108 0.892,2 2,2 l 1.5625,0 C 14.332768,56.830661 22.811154,46.677901 23,46.71875 c 0.112962,0.02443 4.305301,1.817923 9.3125,3.96875 8.551686,3.67335 9.112519,3.872362 9.34375,3.5625 0.349712,-0.468613 1.581641,-2.998183 2.21875,-4.59375 l 0.53125,-1.34375 -0.9375,-0.5 c -1.290487,-0.705708 -3.158523,-2.275008 -4.34375,-3.625 -1.081558,-1.231908 -3.03125,-4.208944 -3.03125,-4.625 0,-0.137714 0.617371,0.472006 1.375,1.375 2.12808,2.536396 7.035772,6.533577 7.34375,5.96875 0.365453,-0.670255 0.60546,-2.675996 0.59375,-4.96875 -0.0143,-2.799011 -0.380293,-4.961031 -1.34375,-7.96875 L 43.5,32.28125 40.84375,31.4375 l -3.28125,-1 c -1.153214,-0.362526 -0.407071,-0.376999 1.28125,0 2.018676,0.450771 4.042803,0.840189 5.3125,1 1.117941,0.140711 1.380452,-0.06835 1.5,-1.3125 0.152427,-1.58631 -0.873493,-5.975024 -1.90625,-8.15625 -0.412193,-0.870551 -0.612269,-1.059694 -1.4375,-1.4375 -2.403671,-1.100436 -9.276172,-2.136126 -13.40625,-2.125 z"
     id="rect3040"
     inkscape:connector-curvature="0"
     sodipodi:nodetypes="sscscssssscccccssccsccccssscsccccssssss" />
</svg>

<svg xmlns="http://www.w3.org/2000/svg" viewBox="0 0 64 64"><g color="#000"><path d="m0 8v26 28l2 2h30 30l2-2v-28-26h-32z" fill="#255a8e"/><path d="m2 0l-2 1v7h32 32v-7l-2-1h-30z" fill="#4e8fc3"/></g><path d="m64 10l-2-2 2-1z" fill="#3a75a8"/><g color="#000"><path d="m3 2v2h58v2h3v-2-2h-61" fill="#214f7d"/><path d="m3 4h58v2h-58z" fill="#deebf8"/><path d="m3 2l2 2v2h-2z" fill-opacity=".128" fill="#001e3b"/></g><path d="m0 7v3l2-2" fill="#68a0cc"/><path d="m28.906 18.406c-.59.002-1.137.015-1.594.063-1.578.165-3.182.578-3.688.906-.142.093.872.303 2.625.625 1.573.289 2.735.591 2.563.625-.172.034-2.65-.259-5.5-.625-5-.642-5.183-.628-5.531-.313-.727.658-1.785 2.476-2 3.438-.208.931-.182.99.281 1.938.79 1.615 2.25 2.809 5.594 4.5 1.581.8 2.828 1.484 2.781 1.531-.047.047-1.398-.431-3-1.094l-2.906-1.219-4.281 1.219c-2.028.568-3.782 1.047-4.25 1.125v24.875c0 1.108.892 2 2 2h1.563c.77-1.169 9.249-11.322 9.438-11.281.113.024 4.305 1.818 9.313 3.969 8.552 3.673 9.113 3.872 9.344 3.563.35-.469 1.582-2.998 2.219-4.594l.531-1.344-.938-.5c-1.29-.706-3.159-2.275-4.344-3.625-1.082-1.232-3.03-4.209-3.03-4.625 0-.138.617.472 1.375 1.375 2.128 2.536 7.04 6.534 7.344 5.969.365-.67.605-2.676.594-4.969-.014-2.799-.38-4.961-1.344-7.969l-.563-1.688-2.656-.844-3.281-1c-1.153-.363-.407-.377 1.281 0 2.02.451 4.04.84 5.313 1 1.118.141 1.38-.068 1.5-1.313.152-1.586-.873-5.975-1.906-8.156-.412-.871-.612-1.06-1.438-1.438-2.404-1.1-9.276-2.136-13.406-2.125" fill="#deebf8" color="#000"/></svg>
